X: 1
T: Ozark Waltz
%D: 1930
S: Bob Taylor, Buck Mountain Band
S: https://www.youtube.com/watch?v=LLJx6uv5Yt4
D: Originally recorded in Memphis, Tennessee, June 1930, by the Morrison Twin Brothers String Band of Searcy County, Arkansas
D: Bob Taylor, Buck Mountain Band, "Moon Behind the Hills"
R: waltz
Z: 2020 John Chambers <jc:trillian.mit.edu>
S: https://www.facebook.com/groups/Fiddletuneoftheday/
S: https://www.facebook.com/groups/Fiddletuneoftheday/photos/
M: 3/4
L: 1/8
K: D
D2 F2 |:\
"D"A4 (3ABA | F2 A2 A2 | [d4F4] dc | d3 A cd | "A"e4 (3efe |\
c2 B2 A2 |1 "D"d3 c dB | A2 DE FG :|2 "D"d4 dc | d3 e fg ||
|:\
"D"a4 a2 | f3 g fe | d3 A dB | A4 Ad | "A"c4 cd |\
c2 B2 A2 |1 "D"d4 dB | A3 d fg :|2 "D"[d4F4] [d2F2] | [d4-F4-] [d2F2] |]
